src/symbols/alphanum/1F521.svg

<svg id="emoji" viewBox="0 0 72 72" xmlns="http://www.w3.org/2000/svg">
  <g id="grid">
    <path fill="#b3b3b3" d="M68,4V68H4V4H68m4-4H0V72H72V0Z"/>
    <path fill="none" stroke="#00a5ff" stroke-miterlimit="10" stroke-width="0.1" d="M12.923,10.9583H59.0769A1.9231,1.9231,0,0,1,61,12.8814V59.0352a1.9231,1.9231,0,0,1-1.9231,1.9231H12.9231A1.9231,1.9231,0,0,1,11,59.0352V12.8813A1.923,1.923,0,0,1,12.923,10.9583Z"/>
    <rect x="16" y="4" rx="2.2537" width="40" height="64" fill="none" stroke="#00a5ff" stroke-miterlimit="10" stroke-width="0.1"/>
    <rect x="16" y="4" rx="2.2537" width="40" height="64" transform="translate(72) rotate(90)" fill="none" stroke="#00a5ff" stroke-miterlimit="10" stroke-width="0.1"/>
    <circle cx="36" cy="36" r="29" fill="none" stroke="#00a5ff" stroke-miterlimit="10" stroke-width="0.1"/>
  </g>
  <g id="color">
    <path fill="#d0cfce" stroke="none" stroke-linejoin="round" stroke-miterlimit="10" stroke-width="2" d="M59.0349,60H12.9651 C12.4343,60,12,59.5657,12,59.0349V12.9651C12,12.4343,12.4343,12,12.9651,12h46.0698C59.5657,12,60,12.4343,60,12.9651v46.0698 C60,59.5657,59.5657,60,59.0349,60z"/>
  </g>
  <g id="hair"/>
  <g id="skin"/>
  <g id="skin-shadow"/>
  <g id="line">
    <path fill="none" stroke="#000000" stroke-linejoin="round" stroke-miterlimit="10" stroke-width="2" d="M59.0349,60H12.9651 C12.4343,60,12,59.5657,12,59.0349V12.9651C12,12.4343,12.4343,12,12.9651,12h46.0698C59.5657,12,60,12.4343,60,12.9651v46.0698 C60,59.5657,59.5657,60,59.0349,60z"/>
    <path fill="none" stroke="#000000" stroke-linecap="round" stroke-linejoin="round" stroke-miterlimit="10" stroke-width="2" d="M32.9107,48.6058c-0.4413,0.3914-1.022,0.6291-1.6583,0.6291l0,0c-1.3807,0-2.5-1.1193-2.5-2.5v-2v2v-2 c0-1.3807,1.1193-2.5,2.5-2.5l0,0c0.6363,0,1.217,0.2377,1.6583,0.6292"/>
    <path fill="none" stroke="#000000" stroke-linecap="round" stroke-linejoin="round" stroke-miterlimit="10" stroke-width="2" d="M42.4743,49.2349L42.4743,49.2349c-1.3807,0-2.5-1.1193-2.5-2.5v-2c0-1.3807,1.1193-2.5,2.5-2.5l0,0c1.3807,0,2.5,1.1193,2.5,2.5 v2C44.9743,48.1156,43.855,49.2349,42.4743,49.2349z"/>
    <line x1="44.9743" x2="44.9743" y1="46.265" y2="37.265" fill="none" stroke="#000000" stroke-linecap="round" stroke-linejoin="round" stroke-miterlimit="10" stroke-width="2"/>
    <path fill="none" stroke="#000000" stroke-linecap="round" stroke-linejoin="round" stroke-miterlimit="10" stroke-width="2" d="M42.4743,32.485L42.4743,32.485c1.3807,0,2.5-1.1193,2.5-2.5v-2c0-1.3807-1.1193-2.5-2.5-2.5l0,0c-1.3807,0-2.5,1.1193-2.5,2.5v2 C39.9743,31.3657,41.0936,32.485,42.4743,32.485z"/>
    <line x1="39.9743" x2="39.9743" y1="29.5151" y2="20.5151" fill="none" stroke="#000000" stroke-linecap="round" stroke-linejoin="round" stroke-miterlimit="10" stroke-width="2"/>
    <path fill="none" stroke="#000000" stroke-linecap="round" stroke-linejoin="round" stroke-miterlimit="10" stroke-width="2" d="M28.0257,30.6933L28.0257,30.6933c0,0.9895,0.8523,1.7917,1.9036,1.7917h1.5229c1.0513,0,1.9036-0.8022,1.9036-1.7917l0,0 c0-0.9895-0.8523-1.7917-1.9036-1.7917h-1.5229C28.878,28.9016,28.0257,29.7038,28.0257,30.6933z"/>
    <path fill="none" stroke="#000000" stroke-linecap="round" stroke-linejoin="round" stroke-miterlimit="10" stroke-width="2" d="M28.4289,26.2557c0.4185-0.5629,1.1625-0.9374,2.0105-0.9374h0.8291c1.3083,0,2.3689,0.8913,2.3689,1.9907l0,0v5.1759"/>
  </g>
</svg>

<svg viewBox="0 0 72 72" xmlns="http://www.w3.org/2000/svg"><path fill="#b3b3b3" d="M68 4v64H4V4h64m4-4H0v72h72V0z"/><path fill="none" stroke="#00a5ff" stroke-miterlimit="10" stroke-width=".1" d="M12.923 10.958h46.154A1.923 1.923 0 0161 12.881v46.154a1.923 1.923 0 01-1.923 1.923H12.923A1.923 1.923 0 0111 59.035V12.881a1.923 1.923 0 011.923-1.923z"/><rect x="16" y="4" rx="2.254" width="40" height="64" fill="none" stroke="#00a5ff" stroke-miterlimit="10" stroke-width=".1"/><rect x="16" y="4" rx="2.254" width="40" height="64" transform="rotate(90 36 36)" fill="none" stroke="#00a5ff" stroke-miterlimit="10" stroke-width=".1"/><circle cx="36" cy="36" r="29" fill="none" stroke="#00a5ff" stroke-miterlimit="10" stroke-width=".1"/><g stroke-linecap="round" stroke-miterlimit="10" stroke-width="6" stroke="#fff" fill="none" stroke-linejoin="round"><path d="M59.035 60h-46.07a.968.968 0 01-.965-.965v-46.07c0-.53.434-.965.965-.965h46.07c.53 0 .965.434.965.965v46.07c0 .53-.434.965-.965.965z"/><path d="M32.91 48.606a2.49 2.49 0 01-1.658.629h0a2.5 2.5 0 01-2.5-2.5v-2 2-2a2.5 2.5 0 012.5-2.5h0a2.49 2.49 0 011.659.63m9.563 6.37h0a2.5 2.5 0 01-2.5-2.5v-2a2.5 2.5 0 012.5-2.5h0a2.5 2.5 0 012.5 2.5v2a2.5 2.5 0 01-2.5 2.5zm2.5-2.97v-9m-2.5-4.78h0a2.5 2.5 0 002.5-2.5v-2a2.5 2.5 0 00-2.5-2.5h0a2.5 2.5 0 00-2.5 2.5v2a2.5 2.5 0 002.5 2.5zm-2.5-2.97v-9M28.026 30.693h0c0 .99.852 1.792 1.903 1.792h1.523c1.051 0 1.904-.802 1.904-1.792h0c0-.99-.852-1.791-1.904-1.791H29.93c-1.051 0-1.903.802-1.903 1.791z"/><path d="M28.429 26.256c.418-.563 1.162-.938 2.01-.938h.83c1.308 0 2.368.892 2.368 1.991h0v5.176"/></g><path fill="#d0cfce" d="M59.035 60h-46.07a.968.968 0 01-.965-.965v-46.07c0-.53.434-.965.965-.965h46.07c.53 0 .965.434.965.965v46.07c0 .53-.434.965-.965.965z"/><g fill="none" stroke="#000" stroke-linejoin="round" stroke-miterlimit="10" stroke-width="2"><path d="M59.035 60h-46.07a.968.968 0 01-.965-.965v-46.07c0-.53.434-.965.965-.965h46.07c.53 0 .965.434.965.965v46.07c0 .53-.434.965-.965.965z"/><path stroke-linecap="round" d="M32.91 48.606a2.49 2.49 0 01-1.658.629h0a2.5 2.5 0 01-2.5-2.5v-2 2-2a2.5 2.5 0 012.5-2.5h0a2.49 2.49 0 011.659.63m9.563 6.37h0a2.5 2.5 0 01-2.5-2.5v-2a2.5 2.5 0 012.5-2.5h0a2.5 2.5 0 012.5 2.5v2a2.5 2.5 0 01-2.5 2.5zm2.5-2.97v-9m-2.5-4.78h0a2.5 2.5 0 002.5-2.5v-2a2.5 2.5 0 00-2.5-2.5h0a2.5 2.5 0 00-2.5 2.5v2a2.5 2.5 0 002.5 2.5zm-2.5-2.97v-9M28.026 30.693h0c0 .99.852 1.792 1.903 1.792h1.523c1.051 0 1.904-.802 1.904-1.792h0c0-.99-.852-1.791-1.904-1.791H29.93c-1.051 0-1.903.802-1.903 1.791z"/><path stroke-linecap="round" d="M28.429 26.256c.418-.563 1.162-.938 2.01-.938h.83c1.308 0 2.368.892 2.368 1.991h0v5.176"/></g></svg>
